X: 35
%
T: Biodag air Mac Thomais
T: Thomas' Son Wears a Dirk
C:
O:Scotland
B:Keith Norman MacDonald : "The Skye collection of the best reels & strathspeys extant" : 1887
Z:Ralph Palmer
R:Reel
M:C
L:1/8
K:A
e | {/d}cA (c/2d/2e) {/d}c2 Ac | B=GdG TB2 GB | {/d}cA (c/2d/2e) {/d}c2 Ac | dB=GB {cB}A2 A :|
g | {/g}ae-ec {/g}ae-ef | =g2 dgBg (dg) | ae-ec aeed | {/d}cABG {cB}A2 Ag |
{/g}ae-ec {/g}aeef | =g2 dgBg dg | {/^g}aebg aefd | {/d}cABG {cB}A2 A |]


